!!!!SEGMENT: pl-kk--kk-i-356--001-001_palestrina-giovanni-pierluigi-da--canite-tuba-in-sion-canite-tuba-in-sion.krn
!!!cenid: 17xx:1942
!!!COM: Palestrina, Giovanni Pierluigi da
!!!COM-rismid: pe1904
!!!CDT: ~1525-1594/02/02
!!!CNT: Italian
!!!OPR: Canite tuba in Sion
!!!OTL: Canite tuba in Sion
!!!OMV: 001
!!!PDT:
!!!AGN: Sacred
!!!SMS-siglum: PL-Kk
!!!SMS-shelfmark: Kk.I.356
!!!SMS-shelfwork: 001-001 M
!!!SMS-variant:
!!!SMS-altvar:
!!!NIFC-rismid: 1001141752
!!!URL-scan: http://repozytorium.nifc.pl/skany/pl-kk-nut--i-356
!!!ONB-nifc: UWAGA: tylko partia basu. Osobne części motetu: 1. Canite tuba in Sion, 2. Rorate caeli
**kern	**text
*Ibass	*
*I"Baſso.	*
*I'B	*
*clefF3	*
*k[]	*
*c:	*
*M2/1	*
*met(c|)	*
=1-	=1-
!LO:TX:b:t=9.	!
!LO:TX:a:t=Ex operibus Friderici Linderieri.	!
!LO:TX:a:t=Pro Adventu Domini.	!
00r	.
=2-	=2-
.	.
=3-	=3-
!LO:TX:a:t=P:problem:kreska pseudotaktowa	!
00r	.
=4-	=4-
.	.
=5-	=5-
1r	.
1.c	Ca-
=6-	=6-
.	.
*2\right	*
2c\	-ni-
1c	-te
=7-	=7-
1A	tu-
!LO:TX:a:t=P:problem:kreska pseudotaktowa	!
1G	-ba
=8-	=8-
0C	in
=9-	=9-
0D	Sy-
=10-	=10-
!LO:TX:a:t=P:problem:kreska pseudotaktowa	!
1G	-on
1.G	qui-
=11-	=11-
.	.
2G\	-a
2C/	pro-
2C/	-pe
=12-	=12-
!LO:TX:a:t=P:problem:kreska pseudotaktowa	!
1G	est.
00r	.
=13-	=13-
.	.
=14-	=14-
.	.
1r	.
=15-	=15-
*	*ij
1.c	qui-
2c\	-a
=16-	=16-
2F/	pro-
2F/	-pe
!LO:TX:a:t=P:problem:kreska pseudotaktowa	!
1c	est.
*	*Xij
=17-	=17-
1G	di-
2D/	-es
1d	Do-
!LO:LB:g=original	!
=18-	=18-
.	.
2c\	.
2B\	-mi-
2B\	-ni
=19-	=19-
!LO:TX:a:t=P:problem:kreska pseudotaktowa	!
0A	.
=20-	=20-
00r	.
=21-	=21-
.	.
=22-	=22-
1r	.
0E	ec-
=23-	=23-
.	.
1A	-ce
=24-	=24-
1F	ve-
!LO:TX:a:t=P:problem:kreska pseudotaktowa	!
1D	-nit
=25-	=25-
2r	.
1A	ad
2d\	sal-
=26-	=26-
1.c	-van-
2B\	.
=27-	=27-
1A	.
1G	-dum
=28-	=28-
!LO:TX:a:t=P:problem:kreska pseudotaktowa	!
1C	nos
0r	.
=29-	=29-
.	.
2r	.
*	*ij
1A	ad
=30-	=30-
.	.
2d\	sal-
1.c	-van-
=31-	=31-
.	.
2B\	.
1A	.
=32-	=32-
1G	-dum
!LO:TX:a:t=P:problem:kreska pseudotaktowa	!
0C	nos
*	*Xij
!LO:LB:g=original	!
=33-	=33-
.	.
00r	.
=34-	=34-
.	.
=35-	=35-
.	.
1r	.
=36-	=36-
2r	.
1E	e-
!LO:TX:a:t=P:problem:kreska pseudotaktowa	!
2F/	-runt
=37-	=37-
1D	pra-
2A\	-va
1G	in
=38-	=38-
.	.
2E/	di-
1F	-re-
=39-	=39-
!LO:TX:a:t=P:problem:kreska pseudotaktowa	!
1E	-cta
00r	.
=40-	=40-
.	.
=41-	=41-
.	.
1r	.
=42-	=42-
1A	et
2.A\	a-
4G\	-spe-
=43-	=43-
2F\	-ra
!LO:TX:a:t=P:problem:kreska pseudotaktowa	!
2G\	in
2F/	vi-
2E/	-as
=44-	=44-
1D	pla-
1C	-nas
=45-	=45-
1c	ve-
!LO:TX:a:t=P:problem:kreska pseudotaktowa	!
0C	-ni
=46-	=46-
.	.
00r	.
=47-	=47-
.	.
=48-	=48-
.	.
0r	.
=49-	=49-
.	.
1G	ve-
=50-	=50-
2A\	-ni
1c	Do-
!LO:LB:g=original	!
!LO:TX:a:t=P:problem:kreska pseudotaktowa	!
2B\	-mi-
=51-	=51-
2A\	-ne
2G\	et
2F\	no-
!LO:TX:a:t=P:problem:kreska pseudotaktowa	!
2A\	-li
=52-	=52-
2G\	tar-
2.F/	-da-
4E/	.
4E/	.
8D/L	.
8C/J	.
=53-	=53-
1D	.
!LO:TX:a:t=P:problem:kreska pseudotaktowa	!
0C	-re
=54-	=54-
.	.
00r	.
=55-	=55-
.	.
=56-	=56-
.	.
0r	.
=57-	=57-
.	.
2r	.
2G\	al-
=58-	=58-
2A\	-le-
2B\	-lu-
2.c\	-ia
4B\	.
=59-	=59-
4A\	.
4G\	.
1F	.
2E/	.
=60-	=60-
1D	.
!LO:TX:a:t=P:problem:kreska pseudotaktowa	!
1C	.
=61-	=61-
!LO:TX:a:t=3	!
0r	.
=62-	=62-
1r	.
!LO:LB:g=original	!
2r	.
2C/	al-
=63-	=63-
2F/	-le-
2G\	-lu-
!LO:TX:a:t=P:problem:kreska pseudotaktowa	!
1C	-ia
=64-	=64-
1r	.
2r	.
*	*ij
2c\	al-
=65-	=65-
2B\	-le-
2G\	-lu-
2.A\	-ia
4G\	.
=66-	=66-
2F/	al-
2E/	-le-
1D	-lu-
=67-	=67-
!LO:TX:a:t=P:problem:kreska pseudotaktowa	!
1C	-ia
*	*Xij
1r	.
=68-	=68-
2r	.
2C/	al-
2F/	-le-
2G\	-lu-
=69-	=69-
!LO:TX:a:t=P:problem:kreska pseudotaktowa	!
0C	-ia
=70-	=70-
1D	al-
0G	-le-
=71-	=71-
.	.
0C	-lu-
=72-	=72-
.	.
00Gl;\	-ia
=-	=-
*-	*-
!!!RDF**kern: l = terminal long
!!!AIN: 1 empty
!!!ENC: Marta Lawrence
!!!END: 2021-02-22
!!!ENC: Marcin Jachim
!!!END: 2021-02-05
